digitransit-component/packages/digitransit-component-icon/src/assets/search-tram-stop-default.svg

<svg width="24" height="24" viewBox="0 0 32 32" fill="none" xmlns="http://www.w3.org/2000/svg">
    <rect x="14.5" y="22" width="3" height="8" rx="1.5" fill="#333333"/>
    <circle cx="16" cy="13" r="11" fill="#008151"/>
    <path d="M8 7C8 5.89543 8.89543 5 10 5H22C23.1046 5 24 5.89543 24 7V19C24 20.1046 23.1046 21 22 21H10C8.89543 21 8 20.1046 8 19V7Z" fill="#008151"/>
    <path d="M18.18 19.2V18.6L17.44 18.7V19.2H14.58V18.7L13.84 18.6V19.2H13.24C13.02 19.2 12.88 19.38 12.88 19.56C12.88 19.82 13.02 19.98 13.24 19.98H18.78C18.96 19.98 19.16 19.82 19.16 19.56C19.16 19.38 18.96 19.2 18.78 19.2H18.18ZM19.18 8.41999C19.08 8.17999 18.94 8.05999 18.7 7.99999C17.84 7.77999 17.22 7.69999 16.42 7.67999V6.97999H17.9C18.1 6.97999 18.26 6.79999 18.26 6.59999C18.26 6.35999 18.1 6.17999 17.9 6.17999H14.14C13.9 6.17999 13.72 6.35999 13.72 6.59999C13.72 6.79999 13.9 6.97999 14.14 6.97999H15.6V7.67999C14.78 7.69999 14.12 7.77999 13.32 7.99999C13.04 8.07999 12.9 8.17999 12.78 8.41999L12.44 9.23999C12.34 9.47999 12.34 9.81999 12.34 10.08V17.28C12.34 17.64 12.58 17.86 12.94 17.92C14.02 18.14 14.96 18.22 16 18.22C17 18.22 17.96 18.14 19.08 17.92C19.42 17.86 19.68 17.64 19.68 17.28V10.08C19.68 9.81999 19.62 9.47999 19.52 9.23999L19.18 8.41999ZM13.52 16.56C13.26 16.56 13.06 16.38 13.06 16.12C13.06 15.84 13.26 15.62 13.52 15.62C13.8 15.62 14 15.84 14 16.12C14 16.38 13.8 16.56 13.52 16.56ZM13.08 9.91999H18.9V14.78C18.14 15 17.06 15.14 16 15.14C14.96 15.14 13.88 14.98 13.08 14.78V9.91999ZM18.54 16.56C18.28 16.56 18.1 16.38 18.1 16.12C18.1 15.84 18.28 15.62 18.54 15.62C18.82 15.62 19.04 15.84 19.04 16.12C19.04 16.38 18.82 16.56 18.54 16.56Z" fill="white"/>
</svg>

<svg xmlns="http://www.w3.org/2000/svg" width="24" height="24" fill="none" viewBox="0 0 32 32">
 <rect width="3" height="8" x="14.5" y="22" fill="#333" rx="1.5"/>
 <circle cx="16" cy="13" r="11" fill="#008151"/>
 <path fill="#008151" d="M8 7a2 2 0 0 1 2-2h12a2 2 0 0 1 2 2v12a2 2 0 0 1-2 2H10a2 2 0 0 1-2-2z"/>
 <path fill="#fff" d="M18.18 19.2v-.6l-.74.1v.5h-2.86v-.5l-.74-.1v.6h-.6c-.22 0-.36.18-.36.36 0 .26.14.42.36.42h5.54c.18 0 .38-.16.38-.42 0-.18-.2-.36-.38-.36zm1-10.78c-.1-.24-.24-.36-.48-.42-.86-.22-1.48-.3-2.28-.32v-.7h1.48c.2 0 .36-.18.36-.38 0-.24-.16-.42-.36-.42h-3.76a.41.41 0 0 0-.42.42c0 .2.18.38.42.38h1.46v.7c-.82.02-1.48.1-2.28.32-.28.08-.42.18-.54.42l-.34.82c-.1.24-.1.58-.1.84v7.2c0 .36.24.58.6.64 1.08.22 2.02.3 3.06.3 1 0 1.96-.08 3.08-.3.34-.06.6-.28.6-.64v-7.2c0-.26-.06-.6-.16-.84zm-5.66 8.14c-.26 0-.46-.18-.46-.44 0-.28.2-.5.46-.5.28 0 .48.22.48.5 0 .26-.2.44-.48.44m-.44-6.64h5.82v4.86c-.76.22-1.84.36-2.9.36-1.04 0-2.12-.16-2.92-.36zm5.46 6.64a.42.42 0 0 1-.44-.44c0-.28.18-.5.44-.5.28 0 .5.22.5.5 0 .26-.22.44-.5.44"/>
</svg>
